packages/web-icons/svgs/exclamation_3.svg

<svg viewBox="0 0 49 49" xmlns="http://www.w3.org/2000/svg" class="ridi_icon"><path d="M24.1.9C10.9.9.1 11.7.1 24.9s10.8 24 24 24 24-10.8 24-24-10.8-24-24-24zm0 40.5c-2.1 0-3.8-1.7-3.8-3.8 0-2.1 1.7-3.8 3.8-3.8 2.1 0 3.8 1.7 3.8 3.8 0 2-1.7 3.8-3.8 3.8zm3.8-16.5c0 2.1-1.7 3.8-3.8 3.8-2.1 0-3.8-1.7-3.8-3.8V12.3c0-2.1 1.7-3.8 3.8-3.8 2.1 0 3.8 1.7 3.8 3.8v12.6z"/></svg>

<?xml version="1.0" encoding="UTF-8"?>
<svg width="49px" height="49px" viewBox="0 0 49 49" version="1.1" xmlns="http://www.w3.org/2000/svg">
  <!-- Generator: Sketch 41.2 (35397) - http://www.bohemiancoding.com/sketch -->
  <title>exclamation_3</title>
  <desc>Created with Sketch.</desc>
  <defs></defs>
  <g id="Page-1" stroke="none" stroke-width="1" fill="none" fill-rule="evenodd">
    <g id="exclamation_3" fill="#444444">
      <g id="레이어_1">
        <path d="M24.1,0.9 C10.9,0.9 0.1,11.7 0.1,24.9 C0.1,38.1 10.9,48.9 24.1,48.9 C37.3,48.9 48.1,38.1 48.1,24.9 C48.1,11.7 37.3,0.9 24.1,0.9 Z M24.1,41.4 C22,41.4 20.3,39.7 20.3,37.6 C20.3,35.5 22,33.8 24.1,33.8 C26.2,33.8 27.9,35.5 27.9,37.6 C27.9,39.6 26.2,41.4 24.1,41.4 Z M27.9,24.9 C27.9,27 26.2,28.7 24.1,28.7 C22,28.7 20.3,27 20.3,24.9 L20.3,12.3 C20.3,10.2 22,8.5 24.1,8.5 C26.2,8.5 27.9,10.2 27.9,12.3 L27.9,24.9 Z" id="Shape"></path>
      </g>
    </g>
  </g>
</svg>
